X: 1
T: Paddy From Portlaw
S: Dervish - Midsummer Night
M: 6/8
L: 1/8
R: jig
K: Dmaj
dB|:AFD D2B|AFD ~D2B|AB/c/d DFA|BGE ~E2B|
AFD ~F3| DFA d2e|fed B/c/dB|1 AFD Dd/c/B:|2 AFD De/f/g||
|:afd ~d3|afd d2f|afd Adf|~g3 efg|
fga baf|afd ede|fdB ABG|1 FGE De/f/g:|2 FGE Dd/c/B||
